X: 273
T: Alleluia virga Jesse floruit
C: Anonim
L: 1/4
M: 3/2
N: Derived from pl-kk--kk-i-275--002_anonim--alleluia-virga-jesse-floruit.krn
K: C clef=bass
G,2G,2G,2 | 
C,2>D,2E,2 | 
G,2D,3D, | 
!breath!G,,4D,2 | 
A,4A,,2 | 
D,6 | 
A,2A,2A,2 | 
E,2>F,2G,2 | 
A,2E,3E, | 
A,,2>B,,2!breath!C,2 | 
F,2G,2G,,2 | 
C,2>D,2E,2 | 
F,2G,2G,,2 | 
!breath!C,4G,2 [|] 
D,4D,2 [|] 
G,,12 | 
 ||  
z2C,2C,2 | 
G,4G,2 [|] 
C,4D,2 | 
!breath!G,,2G,2G,2 | 
F,2F,2C,2 | 
G,2>G,2F,2 | 
E,4D,2 | 
!breath!C,2C,2C,2 | 
B,,4C,2 | 
F,2G,2G,,2 | 
!breath!C,2G,2G,2 | 
F,2>G,2A,2 | 
G,2D,3D, | 
!breath!G,,2G,2G,2 | 
F,2>F,2E,2 | 
D,E,F,G,A,2 [|] 
_B,2G,2A,2 | 
!breath!D,2D,2B,,2 | 
A,,B,,C,D,E,2 | 
F,2D,2E,2 | 
!breath!A,,2C,2G,2 | 
F,2>G,2A,2 | 
G,2D,2D,2 | 
!fermata!G,,16 |]  

